X:0159
T:Shantruish.
T:Willie's Auld Trews
T:Sean Triubhas Uilleachan
T:Deil Stick the Minister
T:This is No My Ain Hoose
T:This is No My Ain Plaid
M:C
L:1/8
Q:1/4=120
I: :: ::
Z:Jack Campin * www.campin.me.uk * 2009
K:E Minor
E|A/A/A AA B2GB|c2 TBA      (d/c/B/A/) G
B|A/A/A AA B2GB|c2 TB>A      GE        E:|
f|eaec     dgdB|cc  d/c/B/A/ BG        G
B|eaec     dgdB|c2 TBA       GE        E:|

